X: 93
T: Hadudaim
O: Israel
C: Nachum Hayman 1966
D: Dance Israel!
M: 2/4
L: 1/8
K: Edor
Q: 1/4=144
z2.F.G|.A2.B2|.A2.F2|DDDF    |E4|\
.A,F3 |.DE3  |CD2D  |.D.D.C.D|E4|z4|:
A,D3  |EF3   |DG3F  |EFD2    |\
CDEF  |B,2B2 |A2GF  |E2z2    :|



